src/main/resources/icons/AllIcons/nodes/jarDirectory.svg

<!-- Copyright 2000-2021 JetBrains s.r.o. Use of this source code is governed by the Apache 2.0 license that can be found in the LICENSE file. -->
<svg xmlns="http://www.w3.org/2000/svg" width="16" height="16" viewBox="0 0 16 16">
  <g fill="none" fill-opacity=".8" fill-rule="evenodd">
    <path fill="#9AA7B0" d="M7.9844,4 L6.6964,2.711 C6.3044,2.32 5.5324,2 4.9784,2 L1.0504,2 C1.0234,2 1.0004,2.023 1.0004,2.051 L1.0004,6 L2.0004,6 L2.0004,7 L3.0004,7.551 L3.0004,6 L4.0004,6 L4.0004,7 L5.0004,7.551 L5.0004,6 L6.0004,6 L6.0004,7 L7.0004,7.551 L7.0004,6 L8.0004,6 L8.0004,7 L9.0004,7.551 L9.0004,6 L10.0004,6 L10.0004,7 L11.0004,7.551 L11.0004,6 L12.0004,6 L12.0004,7 L13.0004,7.551 L13.0004,6 L14.0004,6 L14.0004,7 L15.0004,7.551 L15.0004,6 L15.0004,4 L7.9844,4 Z"/>
    <polygon fill="#9AA7B0" points="14 9 14 8.245 13 7.571 13 9 12 9 12 8.245 11 7.571 11 9 10 9 10 8.245 9 7.571 9 9 8 9 8 8.245 7 7.571 7 9 6 9 6 8.245 5 7.571 5 9 4 9 4 8.245 3 7.571 3 9 2 9 2 8.245 1 7.571 1 9 1 13 15 13 15 9"/>
  </g>
</svg>

<svg xmlns="http://www.w3.org/2000/svg" width="16" height="16" viewBox="0 0 16 16"><rect id="frame" width="16" height="16" fill="none"/><g fill="#9AA7B0" fill-opacity=".8" fill-rule="evenodd"><path d="M7.984 4L6.696 2.711C6.304 2.32 5.532 2 4.978 2H1.05a.051.051 0 0 0-.05.051V6h1v1l1 .551V6h1v1l1 .551V6h1v1l1 .551V6h1v1l1 .551V6h1v1l1 .551V6h1v1l1 .551V6h1v1l1 .551V4H7.984z"/><path d="M14 9v-.755l-1-.674V9h-1v-.755l-1-.674V9h-1v-.755l-1-.674V9H8v-.755l-1-.674V9H6v-.755l-1-.674V9H4v-.755l-1-.674V9H2v-.755l-1-.674V13h14V9z"/></g></svg>
